X: 3781
T: Bishop, The
R: polka
M: 2/4
K: Gmajor
Gg gf|e2 d2|e/f/g dB|c/d/c/A/ A/G/F|
Gg- gf|e2 d2|e/f/g A^c|d3:|
Dc cB/A/|Bd d>c|Bd GB|A/G/F/E/ D2|
GB- BA/G/|Ag fe|dc c/B/A|G3:|

